assets/images/_sprite_logo6.svg

<svg width="112" height="117" viewBox="0 0 112 117" fill="none" xmlns="http://www.w3.org/2000/svg">
<path fill-rule="evenodd" clip-rule="evenodd" d="M56.1675 116.039C52.1376 116.039 48.3505 114.402 45.5026 111.429C42.6567 108.46 41.0906 104.514 41.0879 100.31C41.0859 96.1127 42.652 92.1655 45.4959 89.2031C46.0771 88.5942 46.7355 88.0337 47.6372 87.383C47.8604 87.2254 48.1011 87.0712 48.3532 86.9203C48.9063 86.5741 49.4386 86.2817 49.9923 86.0163C50.286 85.8776 50.5736 85.7388 50.8659 85.6243C51.4257 85.4094 52.0344 85.2222 52.6814 85.0733C52.6814 85.0733 53.2117 84.913 53.2794 84.8955L56.6871 84.6348C57.0893 84.6544 57.5231 84.7156 57.977 84.7756L58.229 84.8106C58.3966 84.8275 58.5367 84.8423 58.6775 84.8443C58.7332 84.849 58.7888 84.849 58.8431 84.8544L58.9497 84.8692L59.0925 84.884C59.3419 84.8908 59.5947 84.8982 59.8441 84.8982C65.6156 84.8955 71.3142 82.3298 75.4768 77.8565C79.6306 73.4008 81.9181 67.3951 81.7545 61.3921L81.7337 60.6592L81.6714 60.5784C81.668 60.5535 81.668 60.5245 81.666 60.4976C81.6566 60.3272 81.6472 60.1547 81.6305 59.9816L81.5748 59.4771C81.5447 59.1996 81.5091 58.9268 81.4998 58.6486L81.7337 55.245C81.7525 55.1621 81.8691 54.7411 81.8966 54.6145C82.0884 53.8008 82.2567 53.2053 82.4484 52.6773C82.555 52.3607 82.6864 52.0704 82.8191 51.7666C83.0598 51.2176 83.3421 50.6599 83.688 50.0462L83.753 49.9337C83.8697 49.7269 83.981 49.5222 84.1191 49.3228C84.7358 48.3845 85.2842 47.6779 85.8628 47.0737C88.7121 44.1012 92.5006 42.4644 96.5284 42.4644C100.553 42.4644 104.335 44.0985 107.181 47.0663C113.054 53.1966 113.054 63.1805 107.181 69.3175C106.611 69.9096 105.932 70.4821 105.047 71.12C104.876 71.2426 104.713 71.3443 104.55 71.4467L104.286 71.6171C103.782 71.9297 103.233 72.2294 102.698 72.4847C102.397 72.6261 102.113 72.7622 101.813 72.8794C101.286 73.0869 100.705 73.262 99.9717 73.4452C99.8248 73.4809 99.7055 73.52 99.5889 73.557C99.5071 73.5786 99.43 73.6055 99.3502 73.6251L96.0008 73.8662C95.5107 73.8447 94.9804 73.7692 94.4669 73.6985C94.2919 73.6763 94.1558 73.6695 94.0224 73.6614C93.9721 73.6594 93.9205 73.6594 93.8689 73.6513L93.584 73.6204C93.3339 73.6103 93.0872 73.6055 92.8398 73.6055C87.0635 73.6055 81.3643 76.1732 77.197 80.6465C73.0465 85.107 70.7611 91.108 70.9293 97.1163L70.9334 97.2922L70.9669 97.4653C70.9991 97.6424 71.0058 97.8256 71.0178 98.0035C71.0292 98.188 71.0433 98.3692 71.0621 98.5464C71.0735 98.6952 71.0949 98.8852 71.113 99.0704C71.1439 99.3358 71.174 99.6039 71.1814 99.8693L70.9334 103.321C70.9153 103.396 70.7865 103.862 70.7865 103.862C70.625 104.594 70.4453 105.234 70.2335 105.836C70.1329 106.118 70.0136 106.392 69.8922 106.677L69.8506 106.776C69.6013 107.339 69.3203 107.894 69.0073 108.438C68.8537 108.706 68.7016 108.969 68.5407 109.218C67.95 110.111 67.3943 110.824 66.7989 111.45C63.9671 114.407 60.19 116.039 56.1675 116.039Z" fill="#4C98C0"/>
</svg>

<svg width="112" height="117" fill="none" xmlns="http://www.w3.org/2000/svg"><path fill-rule="evenodd" clip-rule="evenodd" d="M56.167 116.039c-4.03 0-7.817-1.637-10.664-4.61-2.846-2.969-4.412-6.915-4.415-11.119-.002-4.197 1.564-8.145 4.408-11.107.581-.609 1.24-1.17 2.141-1.82.223-.158.464-.312.716-.463a16.45 16.45 0 011.64-.904c.293-.138.58-.277.873-.392.56-.215 1.168-.402 1.815-.55 0 0 .53-.161.598-.178l3.408-.261c.402.02.836.08 1.29.14l.252.036c.168.016.308.031.449.033.055.005.11.005.165.01l.107.015.142.015c.25.007.503.014.752.014 5.772-.002 11.47-2.568 15.633-7.041 4.154-4.456 6.441-10.462 6.277-16.465l-.02-.733-.063-.08c-.003-.026-.003-.054-.005-.081-.01-.17-.019-.343-.035-.516l-.056-.505c-.03-.277-.066-.55-.075-.828l.234-3.404c.019-.083.135-.504.163-.63.191-.814.36-1.41.551-1.938.107-.316.238-.607.371-.91.24-.55.523-1.107.869-1.72l.065-.113c.117-.207.228-.412.366-.611.617-.938 1.165-1.645 1.744-2.25 2.85-2.972 6.638-4.609 10.665-4.609 4.025 0 7.807 1.635 10.653 4.602 5.873 6.13 5.873 16.114 0 22.251-.57.593-1.249 1.165-2.134 1.803-.171.123-.334.224-.497.327l-.264.17c-.504.313-1.053.612-1.588.868-.301.141-.585.277-.885.394a14.69 14.69 0 01-1.841.566c-.147.036-.266.075-.383.112-.082.022-.159.049-.239.068l-3.35.241c-.49-.021-1.02-.097-1.533-.168-.175-.022-.311-.028-.445-.037-.05-.002-.102-.002-.153-.01l-.285-.03a18.39 18.39 0 00-.744-.015c-5.776 0-11.476 2.567-15.643 7.04-4.15 4.461-6.436 10.462-6.268 16.47l.004.176.034.173c.032.177.039.36.05.538.012.185.026.366.045.543.011.15.033.34.051.524.03.266.061.534.068.8l-.248 3.451a45.15 45.15 0 01-.147.541 16.763 16.763 0 01-.552 1.974c-.101.282-.22.556-.342.841l-.041.099a17.65 17.65 0 01-.844 1.662c-.153.268-.305.531-.466.78-.591.893-1.147 1.606-1.742 2.232-2.832 2.957-6.609 4.589-10.632 4.589z" fill="#4C98C0"/></svg>
